communes/5556.svg

<?xml version="1.0" encoding="UTF-8"?>
<svg version="1.0" viewBox="0 0 603 763" xmlns="http://www.w3.org/2000/svg" xmlns:cc="http://creativecommons.org/ns#" xmlns:dc="http://purl.org/dc/elements/1.1/" xmlns:rdf="http://www.w3.org/1999/02/22-rdf-syntax-ns#" xmlns:xlink="http://www.w3.org/1999/xlink">
<metadata>
<rdf:RDF>
<cc:Work rdf:about="">
<dc:format>image/svg+xml</dc:format>
<dc:type rdf:resource="http://purl.org/dc/dcmitype/StillImage"/>
<dc:date>07-AUG-2006</dc:date>
<dc:creator>
<cc:Agent>
<dc:title>Jérôme BLUM (wagner51)</dc:title>
</cc:Agent>
</dc:creator>
<cc:license rdf:resource="http://creativecommons.org/licenses/GPL/2.0/"/>
<dc:coverage/>
<dc:description>Gabarit pour le Projet:Blasons de WIkipédia</dc:description>
<dc:subject>
<rdf:Bag>
<rdf:li>blason suisse modèle gabarit projet blasons</rdf:li>
</rdf:Bag>
</dc:subject>
<dc:language>fr</dc:language>
<dc:title>Gabrit d'un blason suisse</dc:title>
</cc:Work>
<cc:License rdf:about="http://creativecommons.org/licenses/GPL/2.0/">
<cc:permits rdf:resource="http://web.resource.org/cc/Reproduction"/>
<cc:permits rdf:resource="http://web.resource.org/cc/Distribution"/>
<cc:requires rdf:resource="http://web.resource.org/cc/Notice"/>
<cc:permits rdf:resource="http://web.resource.org/cc/DerivativeWorks"/>
<cc:requires rdf:resource="http://web.resource.org/cc/ShareAlike"/>
<cc:requires rdf:resource="http://web.resource.org/cc/SourceCode"/>
</cc:License>
</rdf:RDF>
</metadata>
<defs>
<radialGradient id="a" cx="858.04" cy="579.93" r="300" gradientTransform="matrix(1.215 1.5316e-24 1.4647e-23 1.2667 -839.19 -490.49)" gradientUnits="userSpaceOnUse">
<stop stop-color="#fff" stop-opacity=".31373" offset="0"/>
<stop stop-color="#fff" stop-opacity=".25098" offset=".19"/>
<stop stop-color="#6b6b6b" stop-opacity=".12549" offset=".6"/>
<stop stop-opacity=".12549" offset="1"/>
</radialGradient>
</defs>
<desc>Coat of Arms of Canton of Freiburg (Fribourg)</desc>
<g>
<path d="m1.5 1.5v458.87c0 166.31 134.31 301.13 300 301.13 165.69 0 300-134.82 300-301.13v-458.87h-600z" fill="#2b5df2"/>
<path d="m1.5 97.183c16.316 5.398 32.016 7.774 51.641 29.399 33.923 37.383 11.731 57.523 45.655 94.906 33.925 37.382 56.117 17.242 90.042 54.624 33.922 37.38 11.729 57.52 45.654 94.902 33.924 37.382 56.117 17.243 90.039 54.624 33.925 37.381 11.732 57.521 45.656 94.902 33.926 37.383 56.118 17.242 90.041 54.621 33.921 37.383 11.73 57.52 45.654 94.906 1.827 2.012 3.619 3.855 5.382 5.555 29.846-29.311 53.632-64.809 69.268-104.44h-1e-3c-14.143-26.42-4.306-45.467-32.086-76.076-33.922-37.379-56.11-17.242-90.031-54.623-33.925-37.381-11.736-57.52-45.658-94.899-33.926-37.383-56.112-17.245-90.039-54.628-33.922-37.379-11.731-57.517-45.655-94.898-33.924-37.382-56.114-17.243-90.04-54.626-33.924-37.383-11.733-57.521-45.658-94.902-30.53-33.642-51.558-20.71-80.183-45.025h-59.681v95.683z" fill="#fff"/>
<path d="m580.53 571.18c-14.143-26.42-4.306-45.467-32.086-76.076-33.922-37.379-56.11-17.242-90.031-54.623-33.925-37.381-11.736-57.52-45.658-94.899-33.926-37.383-56.112-17.245-90.039-54.628-33.922-37.379-11.731-57.517-45.655-94.898-33.924-37.382-56.114-17.243-90.04-54.626-33.924-37.383-11.733-57.521-45.658-94.902-30.528-33.642-51.556-20.71-80.181-45.025" fill="none" stroke="#000" stroke-width="3"/>
<path d="m1.5 97.183c16.316 5.398 32.016 7.774 51.641 29.399 33.923 37.383 11.731 57.523 45.655 94.906 33.925 37.382 56.117 17.242 90.042 54.624 33.922 37.38 11.729 57.52 45.654 94.902 33.924 37.382 56.117 17.243 90.039 54.624 33.925 37.381 11.732 57.521 45.656 94.902 33.926 37.383 56.118 17.242 90.041 54.621 33.921 37.383 11.73 57.52 45.654 94.906 1.827 2.012 3.619 3.855 5.382 5.555" fill="none" stroke="#000" stroke-width="3"/>
<g fill="#fff" stroke="#000" stroke-linecap="round" stroke-linejoin="round" stroke-width="3">
<path d="m494.78 138.88c-15.403-7.294-188.04-91.567-188.04-91.567s75.122 176.81 81.599 192.58c6.479 15.765 31.929 6.457 42.228 0.925l57.176 75.52 78.175-74.186-72.424-61.05c6.064-9.997 16.69-34.925 1.286-42.218z"/>
<path d="m493.49 181.09c-6.064 9.997-17.099 21.086 1.694 40.891 18.794 19.805 32.824 34.588 32.824 34.588 17.206-13.409 32.872-19.733 37.905-14.428 6.238 6.572-6.206 28.507-27.794 48.993-21.586 20.485-44.145 31.763-50.381 25.192-5.033-5.306 2.103-20.619 16.394-37.1 0 0-14.028-14.784-32.822-34.589-18.795-19.804-30.446-9.366-40.747-3.832"/>
<path d="m498.7 141.61c-6.796-7.161-43.839 26.143-43.839 26.143l-148.12-120.44 112.52 154.22s-35.198 35.249-28.401 42.411"/>
</g>
<g fill="#fff" stroke="#000" stroke-linecap="round" stroke-linejoin="round" stroke-width="3">
<path d="m223.55 457.96c-15.403-7.296-188.04-91.569-188.04-91.569s75.122 176.81 81.6 192.58c6.478 15.767 31.928 6.459 42.227 0.926l57.176 75.521 78.175-74.186-72.424-61.05c6.064-9.997 16.69-34.924 1.286-42.217z"/>
<path d="m222.26 500.18c-6.064 9.997-17.099 21.086 1.695 40.892 18.793 19.805 32.824 34.588 32.824 34.588 17.205-13.409 32.871-19.732 37.905-14.428 6.237 6.572-6.206 28.507-27.794 48.993-21.586 20.485-44.144 31.764-50.381 25.192-5.034-5.306 2.103-20.619 16.394-37.102 0 0-14.029-14.783-32.823-34.588-18.794-19.804-30.445-9.365-40.747-3.833"/>
<path d="m227.46 460.69c-6.796-7.16-43.838 26.145-43.838 26.145l-148.12-120.44 112.52 154.22s-35.198 35.249-28.402 42.409"/>
</g>
</g>
<g>
<path d="m1.5 1.5v458.87c0 166.31 134.31 301.13 300 301.13 165.69 0 300-134.82 300-301.13v-458.87h-600z" fill="url(#a)"/>
<path d="m1.5 1.5v458.87c0 166.31 134.31 301.13 300 301.13 165.69 0 300-134.82 300-301.13v-458.87h-600z" fill="none" stroke="#000" stroke-width="3"/>
</g>
</svg>

<?xml version="1.0" encoding="UTF-8" standalone="no"?>
<svg
   xmlns:dc="http://purl.org/dc/elements/1.1/"
   xmlns:cc="http://creativecommons.org/ns#"
   xmlns:rdf="http://www.w3.org/1999/02/22-rdf-syntax-ns#"
   xmlns:svg="http://www.w3.org/2000/svg"
   xmlns="http://www.w3.org/2000/svg"
   xmlns:xlink="http://www.w3.org/1999/xlink"
   xmlns:sodipodi="http://sodipodi.sourceforge.net/DTD/sodipodi-0.dtd"
   xmlns:inkscape="http://www.inkscape.org/namespaces/inkscape"
   height="763"
   width="603"
   version="1.0"
   id="svg20"
   sodipodi:version="0.32"
   inkscape:version="0.46"
   sodipodi:docname="Fiez-coat_of_arms.svg"
   sodipodi:docbase="C:\Documents and Settings\Steve\Bureau\Blason Villages Suisse pour Wikipédia (par Delta-9)"
   inkscape:output_extension="org.inkscape.output.svg.inkscape">
  <metadata
     id="metadata31">
    <rdf:RDF>
      <cc:Work
         rdf:about="">
        <dc:format>image/svg+xml</dc:format>
        <dc:type
           rdf:resource="http://purl.org/dc/dcmitype/StillImage" />
        <dc:date>07-AUG-2006</dc:date>
        <dc:creator>
          <cc:Agent>
            <dc:title>Jérôme BLUM (wagner51)</dc:title>
          </cc:Agent>
        </dc:creator>
        <cc:license
           rdf:resource="http://creativecommons.org/licenses/GPL/2.0/" />
        <dc:coverage />
        <dc:description>Gabarit pour le Projet:Blasons de WIkipédia</dc:description>
        <dc:subject>
          <rdf:Bag>
            <rdf:li>blason suisse modèle gabarit projet blasons</rdf:li>
          </rdf:Bag>
        </dc:subject>
        <dc:language>fr</dc:language>
        <dc:title>Gabrit d'un blason suisse</dc:title>
      </cc:Work>
      <cc:License
         rdf:about="http://creativecommons.org/licenses/GPL/2.0/">
        <cc:permits
           rdf:resource="http://web.resource.org/cc/Reproduction" />
        <cc:permits
           rdf:resource="http://web.resource.org/cc/Distribution" />
        <cc:requires
           rdf:resource="http://web.resource.org/cc/Notice" />
        <cc:permits
           rdf:resource="http://web.resource.org/cc/DerivativeWorks" />
        <cc:requires
           rdf:resource="http://web.resource.org/cc/ShareAlike" />
        <cc:requires
           rdf:resource="http://web.resource.org/cc/SourceCode" />
      </cc:License>
    </rdf:RDF>
  </metadata>
  <defs
     id="defs29"><inkscape:perspective
   sodipodi:type="inkscape:persp3d"
   inkscape:vp_x="0 : 381.5 : 1"
   inkscape:vp_y="0 : 1000 : 0"
   inkscape:vp_z="603 : 381.5 : 1"
   inkscape:persp3d-origin="301.5 : 254.33333 : 1"
   id="perspective28" />
<linearGradient
   id="linearGradient2893">
  <stop
     style="stop-color:#ffffff;stop-opacity:0.3137255;"
     offset="0"
     id="stop2895" />
  <stop
     id="stop2897"
     offset="0.19"
     style="stop-color:#ffffff;stop-opacity:0.25098041;" />
  <stop
     style="stop-color:#6b6b6b;stop-opacity:0.1254902;"
     offset="0.60000002"
     id="stop2901" />
  <stop
     style="stop-color:#000000;stop-opacity:0.1254902;"
     offset="1"
     id="stop2899" />
</linearGradient>
<linearGradient
   id="linearGradient2955">
  <stop
     style="stop-color:white;stop-opacity:0;"
     offset="0"
     id="stop2965" />
  <stop
     style="stop-color:black;stop-opacity:0.64583331;"
     offset="1"
     id="stop2959" />
</linearGradient>
<radialGradient
   inkscape:collect="always"
   xlink:href="#linearGradient2893"
   id="radialGradient3236"
   gradientUnits="userSpaceOnUse"
   gradientTransform="matrix(1.215027,1.531577e-24,1.464684e-23,1.266667,-839.1924,-490.4894)"
   cx="858.04236"
   cy="579.93323"
   fx="858.04236"
   fy="579.93323"
   r="300" />
<inkscape:perspective
   id="perspective2490"
   inkscape:persp3d-origin="297.63751 : 280.63 : 1"
   inkscape:vp_z="595.27502 : 420.94501 : 1"
   inkscape:vp_y="0 : 1000 : 0"
   inkscape:vp_x="0 : 420.94501 : 1"
   sodipodi:type="inkscape:persp3d" />

	
	

	

		
		
	
		
		
		
	
			
			
			
		
			
			
			
		</defs>
  <sodipodi:namedview
     inkscape:window-height="968"
     inkscape:window-width="1280"
     inkscape:pageshadow="2"
     inkscape:pageopacity="0.0"
     guidetolerance="10.0"
     gridtolerance="10.0"
     objecttolerance="10.0"
     borderopacity="1.0"
     bordercolor="#666666"
     pagecolor="#ffffff"
     id="base"
     inkscape:zoom="0.928353"
     inkscape:cx="314.69221"
     inkscape:cy="371.21459"
     inkscape:window-x="1280"
     inkscape:window-y="22"
     inkscape:current-layer="layer2"
     showgrid="false"
     showguides="true"
     inkscape:guide-bbox="true">
    <sodipodi:guide
       orientation="horizontal"
       position="761.5"
       id="guide1885" />
    <sodipodi:guide
       orientation="vertical"
       position="1.5"
       id="guide1887" />
    <sodipodi:guide
       orientation="horizontal"
       position="1.5"
       id="guide1889" />
    <sodipodi:guide
       orientation="vertical"
       position="601.5"
       id="guide1891" />
    <sodipodi:guide
       orientation="vertical"
       position="301.50081"
       id="guide1893" />
  </sodipodi:namedview>
  <desc
     id="desc22">Coat of Arms of Canton of Freiburg (Fribourg)</desc>
  <g
     inkscape:groupmode="layer"
     id="layer1"
     inkscape:label="Fond écu"
     style="opacity:1;display:inline"
     sodipodi:insensitive="true">
    <path
       id="path1899"
       d="M 1.5,1.49998 L 1.5,460.3679 C 1.5,626.6785 135.81456,761.5 301.49999,761.5 C 467.18543,761.5 601.5,626.6785 601.5,460.3679 L 601.5,1.49998 L 1.5,1.49998 z"
       style="fill:#2b5df2;fill-opacity:1" />
  </g>
  <g
     inkscape:groupmode="layer"
     id="layer2"
     inkscape:label="Meubles"
     style="opacity:1;display:inline"
     sodipodi:insensitive="true">
    <g
       id="g2572">
      <path
         d="M 1.5,97.183 C 17.816,102.581 33.516,104.957 53.141,126.582 C 87.064,163.965 64.872,184.105 98.796,221.488 C 132.721,258.87 154.913,238.73 188.838,276.112 C 222.76,313.492 200.567,333.632 234.492,371.014 C 268.416,408.396 290.609,388.257 324.531,425.638 C 358.456,463.019 336.263,483.159 370.187,520.54 C 404.113,557.923 426.305,537.782 460.228,575.161 C 494.149,612.544 471.958,632.681 505.882,670.067 C 507.709,672.079 509.501,673.922 511.264,675.622 C 541.11,646.311 564.896,610.813 580.532,571.177 L 580.531,571.177 C 566.388,544.757 576.225,525.71 548.445,495.101 C 514.523,457.722 492.335,477.859 458.414,440.478 C 424.489,403.097 446.678,382.958 412.756,345.579 C 378.83,308.196 356.644,328.334 322.717,290.951 C 288.795,253.572 310.986,233.434 277.062,196.053 C 243.138,158.671 220.948,178.81 187.022,141.427 C 153.098,104.044 175.289,83.906 141.364,46.525 C 110.834,12.883 89.806,25.815 61.181,1.5 L 1.5,1.5 L 1.5,97.183 z"
         id="path2488"
         style="fill:#ffffff" />
      <path
         d="M 580.529,571.177 C 566.386,544.757 576.223,525.71 548.443,495.101 C 514.521,457.722 492.333,477.859 458.412,440.478 C 424.487,403.097 446.676,382.958 412.754,345.579 C 378.828,308.196 356.642,328.334 322.715,290.951 C 288.793,253.572 310.984,233.434 277.06,196.053 C 243.136,158.671 220.946,178.81 187.02,141.427 C 153.096,104.044 175.287,83.906 141.362,46.525 C 110.834,12.883 89.806,25.815 61.181,1.5"
         id="path2488_1_"
         style="fill:none;stroke:#000000;stroke-width:3" />
      <path
         d="M 1.5,97.183 C 17.816,102.581 33.516,104.957 53.141,126.582 C 87.064,163.965 64.872,184.105 98.796,221.488 C 132.721,258.87 154.913,238.73 188.838,276.112 C 222.76,313.492 200.567,333.632 234.492,371.014 C 268.416,408.396 290.609,388.257 324.531,425.638 C 358.456,463.019 336.263,483.159 370.187,520.54 C 404.113,557.923 426.305,537.782 460.228,575.161 C 494.149,612.544 471.958,632.681 505.882,670.067 C 507.709,672.079 509.501,673.922 511.264,675.622"
         id="path2490_1_"
         style="fill:none;stroke:#000000;stroke-width:3" />
    </g>
    <g
       id="g2562">
      <path
         style="fill:#ffffff;stroke:#000000;stroke-width:3;stroke-linecap:round;stroke-linejoin:round"
         id="path2495"
         d="M 494.781,138.877 C 479.378,131.583 306.741,47.31 306.741,47.31 C 306.741,47.31 381.863,224.121 388.34,239.886 C 394.819,255.651 420.269,246.343 430.568,240.811 L 487.744,316.331 L 565.919,242.145 L 493.495,181.095 C 499.559,171.098 510.185,146.17 494.781,138.877 z" />
      <path
         style="fill:#ffffff;stroke:#000000;stroke-width:3;stroke-linecap:round;stroke-linejoin:round"
         id="path2508"
         d="M 493.494,181.093 C 487.43,191.09 476.395,202.179 495.188,221.984 C 513.982,241.789 528.012,256.572 528.012,256.572 C 545.218,243.163 560.884,236.839 565.917,242.144 C 572.155,248.716 559.711,270.651 538.123,291.137 C 516.537,311.622 493.978,322.9 487.742,316.329 C 482.709,311.023 489.845,295.71 504.136,279.229 C 504.136,279.229 490.108,264.445 471.314,244.64 C 452.519,224.836 440.868,235.274 430.567,240.808" />
      <path
         style="fill:#ffffff;stroke:#000000;stroke-width:3;stroke-linecap:round;stroke-linejoin:round"
         id="path2499"
         d="M 498.695,141.608 C 491.899,134.447 454.856,167.751 454.856,167.751 L 306.741,47.309 L 419.265,201.526 C 419.265,201.526 384.067,236.775 390.864,243.937" />
    </g>
    <g
       id="g2567">
      <path
         style="fill:#ffffff;stroke:#000000;stroke-width:3;stroke-linecap:round;stroke-linejoin:round"
         id="path2495_1_"
         d="M 223.547,457.962 C 208.144,450.666 35.507,366.393 35.507,366.393 C 35.507,366.393 110.629,543.204 117.107,558.968 C 123.585,574.735 149.035,565.427 159.334,559.894 L 216.51,635.415 L 294.685,561.229 L 222.261,500.179 C 228.325,490.182 238.951,465.255 223.547,457.962 z" />
      <path
         style="fill:#ffffff;stroke:#000000;stroke-width:3;stroke-linecap:round;stroke-linejoin:round"
         id="path2497_1_"
         d="M 222.261,500.177 C 216.197,510.174 205.162,521.263 223.956,541.069 C 242.749,560.874 256.78,575.657 256.78,575.657 C 273.985,562.248 289.651,555.925 294.685,561.229 C 300.922,567.801 288.479,589.736 266.891,610.222 C 245.305,630.707 222.747,641.986 216.51,635.414 C 211.476,630.108 218.613,614.795 232.904,598.312 C 232.904,598.312 218.875,583.529 200.081,563.724 C 181.287,543.92 169.636,554.359 159.334,559.891" />
      <path
         style="fill:#ffffff;stroke:#000000;stroke-width:3;stroke-linecap:round;stroke-linejoin:round"
         id="path2499_1_"
         d="M 227.462,460.692 C 220.666,453.532 183.624,486.837 183.624,486.837 L 35.507,366.393 L 148.032,520.611 C 148.032,520.611 112.834,555.86 119.63,563.02" />
    </g>
  </g>
  <g
     inkscape:groupmode="layer"
     id="layer3"
     inkscape:label="Reflet final"
     style="display:inline"
     sodipodi:insensitive="true">
    <path
       style="fill:url(#radialGradient3236);fill-opacity:1"
       d="M 1.5,1.5 L 1.5,460.3679 C 1.5,626.67854 135.81454,761.5 301.49993,761.5 C 467.1854,761.5 601.5,626.67854 601.5,460.3679 L 601.5,1.5 L 1.5,1.5 z"
       id="path2346" />
  </g>
  <g
     inkscape:groupmode="layer"
     id="layer4"
     inkscape:label="Contour final"
     style="display:inline"
     sodipodi:insensitive="true">
    <path
       style="fill:none;fill-opacity:1;stroke:#000000;stroke-width:3;stroke-miterlimit:4;stroke-dasharray:none;stroke-opacity:1"
       d="M 1.5,1.5 L 1.5,460.36794 C 1.5,626.67854 135.81454,761.5 301.49993,761.5 C 467.1854,761.5 601.5,626.67854 601.5,460.36794 L 601.5,1.5 L 1.5,1.5 z "
       id="path3239" />
  </g>
</svg>
